X:1
T:Rattle on the Stovepipe
M:4/4
L:1/4
K:D
 D3/4 E/4 F3/4 G/4 A A| G E E D| D3/4 E/4 F3/4 G/4 A A| G E D2| D3/4 E/4 F3/4 G/4 A A|\
 G E E D| D3/4 E/4 F3/4 G/4 A A| G E D2| A B =c A| d d B G| A B =c A|\
 d B G2| A B =c A| d d B G| =c B A G| E D D2|

